public/images/up-down-fill.svg

<?xml version="1.0" encoding="UTF-8" standalone="no"?>
<svg viewBox="0 0 59 118" version="1.1" xmlns="http://www.w3.org/2000/svg" xmlns:xlink="http://www.w3.org/1999/xlink">
    <g id="Page-1" stroke="none" stroke-width="1" fill="none" fill-rule="evenodd">
        <path d="M16.05,16.05 L42.6,16.05 L42.6,101.55 L29.35,101.55 L16.05,101.5 L16.05,16.05 M26,65.25 C27.0666667,66.3166667 28.35,66.85 29.85,66.85 C31.35,66.85 32.6166667,66.3166667 33.65,65.25 C34.6833333,64.25 35.2166667,63.0333333 35.25,61.6 L35.25,61.45 C35.25,59.95 34.7166667,58.6666667 33.65,57.6 C32.6166667,56.5666667 31.35,56.05 29.85,56.05 C28.35,56.05 27.0666667,56.5666667 26,57.6 C24.9666667,58.6666667 24.45,59.95 24.45,61.45 L24.45,61.6 C24.4833333,63.0333333 25,64.25 26,65.25 M24.65,49.9 C24.1166667,49.3666667 23.4666667,49.1 22.7,49.1 C21.9333333,49.1 21.2833333,49.3666667 20.75,49.9 C20.2166667,50.4333333 19.95,51.0833333 19.95,51.85 C19.95,52.6166667 20.2166667,53.2666667 20.75,53.8 C21.2833333,54.3333333 21.9333333,54.6 22.7,54.6 C23.4666667,54.6 24.1166667,54.3333333 24.65,53.8 C25.1833333,53.2666667 25.45,52.6166667 25.45,51.85 C25.45,51.0833333 25.1833333,50.4333333 24.65,49.9 M24.6,37.6 C24.8333333,38.5666667 25.3333333,39.4333333 26.1,40.2 C27.2,41.3 28.5333333,41.85 30.1,41.85 C31.6666667,41.85 33,41.3 34.1,40.2 C34.8666667,39.4333333 35.3666667,38.5666667 35.6,37.6 L35.75,36.2 C35.75,34.6333333 35.2,33.3 34.1,32.2 C33,31.1 31.6666667,30.55 30.1,30.55 C28.5333333,30.55 27.2,31.1 26.1,32.2 C25,33.3 24.45,34.6333333 24.45,36.2 L24.6,37.6" id="Shape" fill="#1EA7E1"></path>
        <path d="M24.6,37.6 L24.45,36.2 C24.45,34.6333333 25,33.3 26.1,32.2 C27.2,31.1 28.5333333,30.55 30.1,30.55 C31.6666667,30.55 33,31.1 34.1,32.2 C35.2,33.3 35.75,34.6333333 35.75,36.2 L35.6,37.6 C35.3666667,38.5666667 34.8666667,39.4333333 34.1,40.2 C33,41.3 31.6666667,41.85 30.1,41.85 C28.5333333,41.85 27.2,41.3 26.1,40.2 C25.3333333,39.4333333 24.8333333,38.5666667 24.6,37.6 M24.65,49.9 C25.1833333,50.4333333 25.45,51.0833333 25.45,51.85 C25.45,52.6166667 25.1833333,53.2666667 24.65,53.8 C24.1166667,54.3333333 23.4666667,54.6 22.7,54.6 C21.9333333,54.6 21.2833333,54.3333333 20.75,53.8 C20.2166667,53.2666667 19.95,52.6166667 19.95,51.85 C19.95,51.0833333 20.2166667,50.4333333 20.75,49.9 C21.2833333,49.3666667 21.9333333,49.1 22.7,49.1 C23.4666667,49.1 24.1166667,49.3666667 24.65,49.9 M26,65.25 C25,64.25 24.4833333,63.0333333 24.45,61.6 L24.45,61.45 C24.45,59.95 24.9666667,58.6666667 26,57.6 C27.0666667,56.5666667 28.35,56.05 29.85,56.05 C31.35,56.05 32.6166667,56.5666667 33.65,57.6 C34.7166667,58.6666667 35.25,59.95 35.25,61.45 L35.25,61.6 C35.2166667,63.0333333 34.6833333,64.25 33.65,65.25 C32.6166667,66.3166667 31.35,66.85 29.85,66.85 C28.35,66.85 27.0666667,66.3166667 26,65.25" id="Shape" fill="#2CB8F3"></path>
    </g>
</svg>

<svg viewBox="0 0 59 118" xmlns="http://www.w3.org/2000/svg"><g fill="none" fill-rule="evenodd"><path d="M16.05 16.05H42.6v85.5H29.35l-13.3-.05V16.05M26 65.25c1.067 1.067 2.35 1.6 3.85 1.6s2.767-.533 3.8-1.6c1.033-1 1.567-2.217 1.6-3.65v-.15c0-1.5-.533-2.783-1.6-3.85-1.033-1.033-2.3-1.55-3.8-1.55s-2.783.517-3.85 1.55c-1.033 1.067-1.55 2.35-1.55 3.85v.15c.033 1.433.55 2.65 1.55 3.65M24.65 49.9c-.533-.533-1.183-.8-1.95-.8-.767 0-1.417.267-1.95.8-.533.533-.8 1.183-.8 1.95 0 .767.267 1.417.8 1.95.533.533 1.183.8 1.95.8.767 0 1.417-.267 1.95-.8.533-.533.8-1.183.8-1.95 0-.767-.267-1.417-.8-1.95m-.05-12.3c.233.967.733 1.833 1.5 2.6 1.1 1.1 2.433 1.65 4 1.65 1.567 0 2.9-.55 4-1.65.767-.767 1.267-1.633 1.5-2.6l.15-1.4c0-1.567-.55-2.9-1.65-4-1.1-1.1-2.433-1.65-4-1.65-1.567 0-2.9.55-4 1.65-1.1 1.1-1.65 2.433-1.65 4l.15 1.4" fill="#1EA7E1"/><path d="M24.6 37.6l-.15-1.4c0-1.567.55-2.9 1.65-4 1.1-1.1 2.433-1.65 4-1.65 1.567 0 2.9.55 4 1.65 1.1 1.1 1.65 2.433 1.65 4l-.15 1.4c-.233.967-.733 1.833-1.5 2.6-1.1 1.1-2.433 1.65-4 1.65-1.567 0-2.9-.55-4-1.65-.767-.767-1.267-1.633-1.5-2.6m.05 12.3c.533.533.8 1.183.8 1.95 0 .767-.267 1.417-.8 1.95-.533.533-1.183.8-1.95.8-.767 0-1.417-.267-1.95-.8-.533-.533-.8-1.183-.8-1.95 0-.767.267-1.417.8-1.95.533-.533 1.183-.8 1.95-.8.767 0 1.417.267 1.95.8M26 65.25c-1-1-1.517-2.217-1.55-3.65v-.15c0-1.5.517-2.783 1.55-3.85 1.067-1.033 2.35-1.55 3.85-1.55s2.767.517 3.8 1.55c1.067 1.067 1.6 2.35 1.6 3.85v.15c-.033 1.433-.567 2.65-1.6 3.65-1.033 1.067-2.3 1.6-3.8 1.6s-2.783-.533-3.85-1.6" fill="#2CB8F3"/></g></svg>
